icon-themes/breeze_svg/cmd/lc_changebezier.svg

<svg viewBox="0 0 24 24" xmlns="http://www.w3.org/2000/svg"><path d="m5.5 4c-.831 0-1.5.669-1.5 1.5 0 .6542402.4180774 1.2021974 1 1.4082031v10.0917969h-1v3h3v-3h-1v-10.0917969c.4244565-.1502613.7567461-.4855396.9082031-.9082031h10.0917969v1h3v-3h-3v1h-10.0917969c-.2060057-.5819226-.7539629-1-1.4082031-1zm0 1c.277 0 .5.223.5.5s-.223.5-.5.5-.5-.223-.5-.5.223-.5.5-.5zm12.5 0h1v1h-1zm-13 13h1v1h-1z" fill="#4d4d4d"/><path d="m17.5 15c-1.385 0-2.5 1.115-2.5 2.5 0 .4334.120005.8328.3125 1.1875l.75-.75c-.041025-.1371-.0625-.2867-.0625-.4375 0-.831.669-1.5 1.5-1.5.150791 0 .300406.0225.4375.0625l.75-.75c-.354645-.1924-.754073-.3125-1.1875-.3125zm2.1875 1.314453-.75.748047c.04103.1371.0625.2867.0625.4375 0 .831-.669 1.5-1.5 1.5-.150791 0-.300406-.020547-.4375-.060547l-.75.75c.354645.1924.754073.3125 1.1875.3125 1.385 0 2.5-1.115 2.5-2.5 0-.4334-.120005-.8328-.3125-1.1875z" fill="#1d99f3"/></svg>

<svg xmlns="http://www.w3.org/2000/svg" viewBox="0 0 24 24">
 <path 
     style="fill:#4d4d4d" 
     d="M 5.5 4 C 4.669 4 4 4.669 4 5.5 C 4 6.1542402 4.4180774 6.7021974 5 6.9082031 L 5 17 L 4 17 L 4 20 L 7 20 L 7 17 L 6 17 L 6 6.9082031 C 6.4244565 6.7579418 6.7567461 6.4226635 6.9082031 6 L 17 6 L 17 7 L 20 7 L 20 4 L 17 4 L 17 5 L 6.9082031 5 C 6.7021974 4.4180774 6.1542402 4 5.5 4 z M 5.5 5 C 5.777 5 6 5.223 6 5.5 C 6 5.777 5.777 6 5.5 6 C 5.223 6 5 5.777 5 5.5 C 5 5.223 5.223 5 5.5 5 z M 18 5 L 19 5 L 19 6 L 18 6 L 18 5 z M 5 18 L 6 18 L 6 19 L 5 19 L 5 18 z "
     />
 <path 
     style="fill:#1d99f3" 
     d="M 17.5 15 C 16.115 15 15 16.115 15 17.5 C 15 17.9334 15.120005 18.3328 15.3125 18.6875 L 16.0625 17.9375 C 16.021475 17.8004 16 17.6508 16 17.5 C 16 16.669 16.669 16 17.5 16 C 17.650791 16 17.800406 16.0225 17.9375 16.0625 L 18.6875 15.3125 C 18.332855 15.1201 17.933427 15 17.5 15 z M 19.6875 16.314453 L 18.9375 17.0625 C 18.97853 17.1996 19 17.3492 19 17.5 C 19 18.331 18.331 19 17.5 19 C 17.349209 19 17.199594 18.979453 17.0625 18.939453 L 16.3125 19.689453 C 16.667145 19.881853 17.066573 20.001953 17.5 20.001953 C 18.885 20.001953 20 18.886953 20 17.501953 C 20 17.068553 19.879995 16.669153 19.6875 16.314453 z "
     />
 </svg>
